Flat-Remix/apps/scalable/tomahawk.svg

<svg xmlns="http://www.w3.org/2000/svg" width="512" height="512" version="1.1" viewBox="0 0 384 384"> <g> <path style="fill:rgb(83.137%,9.803%,9.803%)" d="M 192 23.25 C 98.785156 23.25 23.25 98.785156 23.25 192 C 23.25 285.214844 98.785156 360.75 192 360.75 C 285.214844 360.75 360.75 285.214844 360.75 192 C 360.75 98.785156 285.214844 23.25 192 23.25 Z M 192 59.613281 C 265.128906 59.613281 324.386719 118.867188 324.386719 192 C 324.386719 238.066406 300.976562 278.515625 265.296875 302.230469 L 265.296875 111.886719 L 218.703125 111.886719 L 218.703125 174.386719 L 184.328125 151.941406 L 123.535156 112.738281 L 123.535156 270.125 L 184.328125 230.921875 L 218.703125 208.476562 L 218.703125 321.832031 C 210.085938 323.59375 201.140625 324.386719 192 324.386719 C 118.871094 324.386719 59.613281 265.132812 59.613281 192 C 59.613281 118.867188 118.871094 59.613281 192 59.613281 Z M 192 59.613281"/> <path style="fill:rgb(58.431%,7.058%,7.058%)" d="M 192 44.613281 C 118.871094 44.613281 59.613281 103.867188 59.613281 177 C 59.613281 179.515625 59.691406 182.015625 59.832031 184.5 C 63.71875 114.859375 121.386719 59.613281 192 59.613281 C 262.597656 59.613281 320.257812 114.835938 324.167969 184.453125 C 324.304688 181.988281 324.386719 179.503906 324.386719 177 C 324.386719 103.867188 265.128906 44.613281 192 44.613281 Z M 23.425781 184.5 C 23.316406 186.988281 23.25 189.484375 23.25 192 C 23.25 285.214844 98.785156 360.75 192 360.75 C 285.214844 360.75 360.75 285.214844 360.75 192 C 360.75 189.484375 360.683594 186.988281 360.574219 184.5 C 356.652344 274.230469 282.699219 345.75 192 345.75 C 101.300781 345.75 27.347656 274.230469 23.425781 184.5 Z M 218.703125 193.476562 L 184.332031 215.921875 L 123.535156 255.125 L 123.535156 270.125 L 184.332031 230.921875 L 218.703125 208.476562 Z M 218.703125 193.476562"/> </g> </svg>

<svg width="512" height="512" version="1.1" viewBox="0 0 384 384" xmlns="http://www.w3.org/2000/svg"><circle cx="192" cy="192" r="156.35" fill="#fff" style="paint-order:normal"/><path d="m192 30.75c-93.215 0-168.75 75.535-168.75 168.75 0 93.215 75.535 168.75 168.75 168.75 93.215 0 168.75-75.535 168.75-168.75 0-93.215-75.535-168.75-168.75-168.75zm0 36.363c73.129 0 132.39 59.254 132.39 132.39 0 46.066-23.41 86.516-59.09 110.23v-190.34h-46.594v62.5l-34.375-22.445-60.793-39.203v157.39l60.793-39.203 34.375-22.445v113.36c-8.6172 1.7617-17.562 2.5547-26.703 2.5547-73.129 0-132.39-59.254-132.39-132.39 0-73.133 59.258-132.39 132.39-132.39z" opacity=".3"/><path d="m192 23.25c-93.215 0-168.75 75.535-168.75 168.75s75.535 168.75 168.75 168.75 168.75-75.535 168.75-168.75-75.535-168.75-168.75-168.75zm0 36.363c73.129 0 132.39 59.254 132.39 132.39 0 46.066-23.41 86.516-59.09 110.23v-190.34h-46.594v62.5l-34.375-22.445-60.793-39.203v157.39l60.793-39.203 34.375-22.445v113.36c-8.6172 1.7617-17.562 2.5547-26.703 2.5547-73.129 0-132.39-59.254-132.39-132.39s59.258-132.39 132.39-132.39z" fill="#d31818"/><path d="m192 44.613c-73.129 0-132.39 59.254-132.39 132.39 0 2.5156 0.078125 5.0156 0.21875 7.5 3.8867-69.641 61.555-124.89 132.17-124.89 70.598 0 128.26 55.223 132.17 124.84 0.13672-2.4648 0.21875-4.9492 0.21875-7.4531 0-73.133-59.258-132.39-132.39-132.39zm-168.57 139.89c-0.10938 2.4883-0.17578 4.9844-0.17578 7.5 0 93.215 75.535 168.75 168.75 168.75s168.75-75.535 168.75-168.75c0-2.5156-0.066406-5.0117-0.17578-7.5-3.9219 89.73-77.875 161.25-168.57 161.25s-164.65-71.52-168.57-161.25zm195.28 8.9766-34.371 22.445-60.797 39.203v15l60.797-39.203 34.371-22.445z" fill="#941111"/></svg>
